components/Icon/icons/python.svg

<svg width="51" height="50" viewBox="0 0 51 50" fill="none" xmlns="http://www.w3.org/2000/svg">
<g clip-path="url(#clip0)">
<path d="M25.2232 0.0140991C12.3385 0.0140991 13.143 5.52684 13.143 5.52684L13.1573 11.2382H25.4529V12.9529H8.27369C8.27369 12.9529 0.0288086 12.0304 0.0288086 24.8568C0.0288086 37.6837 7.22515 37.2288 7.22515 37.2288H11.5199V31.2766C11.5199 31.2766 11.2884 24.1766 18.6014 24.1766H30.7964C30.7964 24.1766 37.6479 24.2859 37.6479 17.6435V6.66077C37.6479 6.66077 38.6885 0.0140991 25.2232 0.0140991ZM18.4434 3.85488C18.7339 3.85463 19.0217 3.9109 19.2902 4.02048C19.5586 4.13006 19.8026 4.2908 20.008 4.4935C20.2135 4.69621 20.3764 4.93689 20.4875 5.20178C20.5986 5.46667 20.6556 5.75057 20.6553 6.03724C20.6556 6.3239 20.5986 6.6078 20.4875 6.87269C20.3764 7.13758 20.2135 7.37827 20.008 7.58097C19.8026 7.78367 19.5586 7.94441 19.2902 8.05399C19.0217 8.16358 18.7339 8.21985 18.4434 8.21959C18.1528 8.21985 17.8651 8.16358 17.5966 8.05399C17.3281 7.94441 17.0841 7.78367 16.8787 7.58097C16.6732 7.37827 16.5103 7.13758 16.3992 6.87269C16.2882 6.6078 16.2311 6.3239 16.2314 6.03724C16.2311 5.75057 16.2882 5.46667 16.3992 5.20178C16.5103 4.93689 16.6732 4.69621 16.8787 4.4935C17.0841 4.2908 17.3281 4.13006 17.5966 4.02048C17.8651 3.9109 18.1528 3.85463 18.4434 3.85488V3.85488Z" fill="url(#paint0_linear)"/>
<path d="M25.589 49.8286C38.4736 49.8286 37.6691 44.3159 37.6691 44.3159L37.6548 38.6047H25.359V36.89H42.5383C42.5383 36.89 50.7831 37.8126 50.7831 24.9857C50.7831 12.159 43.5868 12.6139 43.5868 12.6139H39.292V18.5659C39.292 18.5659 39.5236 25.6659 32.2106 25.6659H20.0156C20.0156 25.6659 13.164 25.5567 13.164 32.1992V43.1822C13.164 43.1822 12.1236 49.8286 25.5888 49.8286H25.589ZM32.3688 45.9882C32.0782 45.9885 31.7905 45.9322 31.522 45.8227C31.2535 45.7131 31.0095 45.5523 30.8041 45.3496C30.5986 45.1469 30.4357 44.9062 30.3247 44.6414C30.2136 44.3765 30.1565 44.0926 30.1568 43.8059C30.1565 43.5192 30.2135 43.2353 30.3246 42.9704C30.4357 42.7055 30.5986 42.4648 30.804 42.262C31.0095 42.0593 31.2534 41.8986 31.5219 41.789C31.7904 41.6794 32.0782 41.6231 32.3688 41.6233C32.6593 41.6231 32.9471 41.6794 33.2156 41.7889C33.4841 41.8985 33.728 42.0593 33.9335 42.262C34.1389 42.4647 34.3018 42.7054 34.4129 42.9702C34.524 43.2351 34.581 43.519 34.5807 43.8057C34.581 44.0924 34.524 44.3763 34.4129 44.6412C34.3018 44.906 34.1389 45.1467 33.9335 45.3494C33.728 45.5521 33.4841 45.7129 33.2156 45.8225C32.9471 45.932 32.6593 45.9883 32.3688 45.9881V45.9882Z" fill="url(#paint1_linear)"/>
</g>
<defs>
<linearGradient id="paint0_linear" x1="4.90629" y1="4.49462" x2="29.723" y2="29.3971" gradientUnits="userSpaceOnUse">
<stop stop-color="#387EB8"/>
<stop offset="1" stop-color="#366994"/>
</linearGradient>
<linearGradient id="paint1_linear" x1="20.3447" y1="20.2708" x2="47.0116" y2="45.8219" gradientUnits="userSpaceOnUse">
<stop stop-color="#FFE052"/>
<stop offset="1" stop-color="#FFC331"/>
</linearGradient>
<clipPath id="clip0">
<rect width="50.8772" height="50" fill="white"/>
</clipPath>
</defs>
</svg>

<svg xmlns="http://www.w3.org/2000/svg" viewBox="0 0 51 50" width="100%" height="100%" fill="none"  xmlns:v="https://vecta.io/nano"><g clip-path="url(#C)"><path d="M25.223.014c-12.885 0-12.08 5.513-12.08 5.513l.014 5.711h12.296v1.715H8.274S.029 12.03.029 24.857s7.196 12.372 7.196 12.372h4.295v-5.952s-.232-7.1 7.082-7.1h12.195s6.852.109 6.852-6.533V6.661S38.689.014 25.223.014zm-6.78 3.841c.29 0 .578.056.847.166a2.21 2.21 0 0 1 .718.473 2.18 2.18 0 0 1 .48.708c.111.265.168.549.168.835s-.057.571-.168.835a2.18 2.18 0 0 1-.48.708 2.21 2.21 0 0 1-.718.473c-.268.11-.556.166-.847.166s-.578-.056-.847-.166a2.21 2.21 0 0 1-.718-.473 2.18 2.18 0 0 1-.479-.708c-.111-.265-.168-.549-.168-.835s.057-.571.168-.835a2.18 2.18 0 0 1 .479-.708 2.21 2.21 0 0 1 .718-.473c.269-.11.556-.166.847-.166h0z" fill="url(#A)"/><path d="M25.589 49.829c12.885 0 12.08-5.513 12.08-5.513l-.014-5.711H25.359V36.89h17.179s8.245.923 8.245-11.904-7.196-12.372-7.196-12.372h-4.295v5.952s.232 7.1-7.081 7.1H20.016s-6.852-.109-6.852 6.533v10.983s-1.04 6.646 12.425 6.646h0zm6.78-3.84c-.291 0-.578-.056-.847-.166a2.21 2.21 0 0 1-.718-.473c-.205-.203-.368-.443-.479-.708s-.168-.549-.168-.835.057-.571.168-.836a2.18 2.18 0 0 1 .479-.708c.206-.203.449-.363.718-.473s.556-.166.847-.166a2.24 2.24 0 0 1 .847.166c.268.11.512.27.718.473a2.18 2.18 0 0 1 .479.708c.111.265.168.549.168.836s-.057.571-.168.835a2.18 2.18 0 0 1-.479.708c-.206.203-.449.363-.718.473a2.24 2.24 0 0 1-.847.166h0z" fill="url(#B)"/></g><defs><linearGradient id="A" x1="4.906" y1="4.495" x2="29.723" y2="29.397" gradientUnits="userSpaceOnUse"><stop stop-color="#387eb8"/><stop offset="1" stop-color="#366994"/></linearGradient><linearGradient id="B" x1="20.345" y1="20.271" x2="47.012" y2="45.822" gradientUnits="userSpaceOnUse"><stop stop-color="#ffe052"/><stop offset="1" stop-color="#ffc331"/></linearGradient><clipPath id="C"><path fill="#fff" d="M0 0h50.877v50H0z"/></clipPath></defs></svg>
